X: 987
T: Turkey in the Straw
B: jims roots
B: ralph
M:4/4
L:1/4
Q: 1/4=100
K:G
V:1 
B/2A/2 | "G"G/2F/2G/2A/2 G/2D/2B,/2C/2 | D/2E/2D/2B,/2 DG/2A/2 | BB B/2A/2G/2A/2 | "D"BA AB/2A/2|
"G"G/2F/2G/2A/2 G/2D/2B,/2C/2 | D/2E/2D/2B,/2 DG/2A/2 | B/2de/2 d/2B/2G/2A/2 | "D"B/G/A/F/ "G"G :|
G/2A/2 | "G"B/2dB/2 dd | B/2dB/2 d2 | "C"c/2ec/2 ee | c/2ec/2 e e/f/ |
"G"gg dd | B/2dB/2 "D"AG/2A/2 | "G"B/2de/2 d/2B/2G/2A/2 | "D"B/G/A/F/ "G"G :|
% abcbook-tune_id 6298c297ff0c2f511bb5e39f


% abcbook-boost 0
% abcbook-tablature 
% abcbook-transpose 
% abcbook-lastupdated 1665486369997
% abcbook-soundfonts 
% abcbook-repeats 1


